icons/gynecology.svg

<svg width="48" height="48" viewBox="0 0 48 48" fill="none" xmlns="http://www.w3.org/2000/svg">
<path fill-rule="evenodd" clip-rule="evenodd" d="M39 8H9C8.44771 8 8 8.44772 8 9V39C8 39.5523 8.44772 40 9 40H39C39.5523 40 40 39.5523 40 39V9C40 8.44771 39.5523 8 39 8ZM9 6C7.34315 6 6 7.34315 6 9V39C6 40.6569 7.34315 42 9 42H39C40.6569 42 42 40.6569 42 39V9C42 7.34315 40.6569 6 39 6H9Z" fill="black"/>
<path fill-rule="evenodd" clip-rule="evenodd" d="M11.9811 18.2836C11.7733 17.9138 11.86 17.4679 12.2544 17.0695C12.4459 16.8761 12.6485 16.7684 12.7853 16.733C12.8044 16.7281 12.8197 16.725 12.8317 16.723C13.8045 17.5817 14.4889 17.9952 15.2373 17.9994C15.4086 18.0003 15.5556 17.9794 15.6574 17.9632C15.7009 17.9562 15.7334 17.9507 15.7602 17.9462C15.8081 17.9381 15.838 17.9331 15.8808 17.9281C15.9562 17.9194 16.0516 17.9138 16.2347 17.9642L16.7653 16.0359C16.3116 15.911 15.9562 15.9061 15.6512 15.9414C15.553 15.9527 15.4461 15.9707 15.3821 15.9815L15.3421 15.9882C15.2744 15.999 15.255 15.9994 15.2485 15.9994L15.2456 15.9992C15.245 15.9991 15.2402 15.9985 15.2302 15.9956C15.2096 15.9896 15.1594 15.9721 15.0706 15.9227C14.8832 15.8182 14.585 15.6062 14.1064 15.1804C13.5408 14.6771 12.8318 14.6554 12.2852 14.7966C11.7392 14.9376 11.2308 15.2608 10.8332 15.6624C10.0494 16.454 9.4458 17.8545 10.2375 19.2634C10.6912 20.0706 11.2045 20.7404 11.6495 21.248C11.6362 20.803 11.7547 20.4029 12.0177 20.1136C12.2571 19.8502 12.5845 19.7136 12.9535 19.6946C12.6326 19.3057 12.2885 18.8306 11.9811 18.2836Z" fill="black"/>
<path d="M16.313 21.4423C17.4553 22.5365 17.7739 24.0319 17.0246 24.7824C16.2753 25.533 14.7418 25.2544 13.5996 24.1602C12.4573 23.066 12.1387 21.5706 12.888 20.82C13.6373 20.0695 15.1707 20.3481 16.313 21.4423Z" fill="black"/>
<path fill-rule="evenodd" clip-rule="evenodd" d="M36.2662 18.2836C36.474 17.9137 36.3873 17.4679 35.9928 17.0695C35.8014 16.8761 35.5987 16.7683 35.462 16.733C35.4429 16.7281 35.4276 16.725 35.4156 16.723C34.4427 17.5817 33.7583 17.9951 33.01 17.9993C32.8387 18.0003 32.6917 17.9794 32.5898 17.9631C32.5463 17.9562 32.5139 17.9507 32.4871 17.9462C32.4392 17.9381 32.4093 17.933 32.3665 17.9281C32.2911 17.9194 32.1956 17.9138 32.0125 17.9642L31.482 16.0358C31.9357 15.911 32.2911 15.9061 32.5961 15.9413C32.6943 15.9527 32.8011 15.9707 32.8651 15.9815L32.9052 15.9881C32.9728 15.999 32.9923 15.9994 32.9987 15.9993L33.0016 15.9992C33.0023 15.9991 33.0071 15.9984 33.0171 15.9955C33.0376 15.9896 33.0878 15.9721 33.1766 15.9226C33.364 15.8182 33.6622 15.6062 34.1408 15.1803C34.7065 14.6771 35.4155 14.6554 35.9621 14.7965C36.5081 14.9376 37.0165 15.2607 37.4141 15.6623C38.1978 16.454 38.8015 17.8545 38.0097 19.2634C37.5561 20.0706 37.0427 20.7403 36.5978 21.248C36.6111 20.8029 36.4926 20.4029 36.2296 20.1136C35.9902 19.8502 35.6628 19.7136 35.2937 19.6945C35.6146 19.3056 35.9588 18.8305 36.2662 18.2836Z" fill="black"/>
<path d="M31.9342 21.4423C30.7919 22.5364 30.4733 24.0319 31.2226 24.7824C31.9719 25.5329 33.5053 25.2543 34.6476 24.1602C35.7899 23.066 36.1085 21.5705 35.3592 20.82C34.6099 20.0695 33.0765 20.3481 31.9342 21.4423Z" fill="black"/>
<path d="M24.1101 14C13.2757 14 17.3386 22.0426 20.0472 22.0426C22.2944 22.0426 21.0537 30.9613 22.5 34C22.797 34.624 23.5717 34 24.1101 34C24.6484 34 25.2248 34.624 25.5 34C26.8404 30.9613 25.4744 22.0426 27.7215 22.0426C30.4301 22.0426 34.9445 14 24.1101 14Z" fill="black"/>
</svg>

<svg
  xmlns="http://www.w3.org/2000/svg"
  width="24"
  height="24"
  viewBox="0 0 24 24"
  fill="none"
  stroke="currentColor"
  stroke-width="2"
  stroke-linecap="round"
  stroke-linejoin="round"
>
  <path
    fill-rule="evenodd"
    d="M39 8H9a1 1 0 0 0-1 1v30a1 1 0 0 0 1 1h30a1 1 0 0 0 1-1V9a1 1 0 0 0-1-1M9 6a3 3 0 0 0-3 3v30a3 3 0 0 0 3 3h30a3 3 0 0 0 3-3V9a3 3 0 0 0-3-3z"
    clip-rule="evenodd"
  />
  <path
    fill-rule="evenodd"
    d="M11.981 18.284c-.208-.37-.121-.816.273-1.214.192-.194.395-.302.531-.337l.047-.01c.973.859 1.657 1.272 2.405 1.276.172.001.319-.02.42-.036l.103-.017c.048-.008.078-.013.12-.018a.84.84 0 0 1 .355.036l.53-1.928a2.8 2.8 0 0 0-1.114-.095c-.098.012-.205.03-.269.04l-.04.007a1 1 0 0 1-.094.011h-.002q-.001 0-.016-.003a1 1 0 0 1-.16-.073c-.187-.105-.485-.317-.964-.743-.565-.503-1.274-.525-1.82-.383-.547.14-1.055.464-1.453.865-.784.792-1.387 2.193-.595 3.601.453.808.966 1.477 1.412 1.985-.014-.445.105-.845.368-1.134.24-.264.566-.4.935-.42a9.7 9.7 0 0 1-.972-1.41"
    clip-rule="evenodd"
  />
  <path d="M16.313 21.442c1.142 1.095 1.46 2.59.712 3.34-.75.751-2.283.472-3.425-.622-1.143-1.094-1.461-2.59-.712-3.34s2.283-.472 3.425.622" />
  <path
    fill-rule="evenodd"
    d="M36.266 18.284c.208-.37.121-.816-.273-1.214a1.25 1.25 0 0 0-.531-.337l-.046-.01c-.973.859-1.658 1.272-2.406 1.276a2.5 2.5 0 0 1-.42-.036l-.103-.017c-.048-.008-.078-.013-.12-.018a.84.84 0 0 0-.354.036l-.531-1.928c.454-.125.81-.13 1.114-.095.098.012.205.03.27.04l.04.007c.067.011.086.011.093.011h.003q0 .001.015-.004a1 1 0 0 0 .16-.072c.187-.105.485-.317.964-.743.566-.503 1.275-.525 1.821-.383.546.14 1.054.464 1.452.865.784.792 1.387 2.193.596 3.601a12 12 0 0 1-1.412 1.985c.013-.445-.105-.845-.368-1.134-.24-.264-.567-.4-.936-.42.32-.388.665-.863.972-1.41"
    clip-rule="evenodd"
  />
  <path d="M31.934 21.442c-1.142 1.094-1.46 2.59-.711 3.34s2.282.472 3.425-.622 1.46-2.59.711-3.34c-.75-.75-2.282-.472-3.425.622" />
  <path d="M24.11 14c-10.834 0-6.771 8.043-4.063 8.043 2.247 0 1.007 8.918 2.453 11.957.297.624 1.072 0 1.61 0s1.115.624 1.39 0c1.34-3.039-.026-11.957 2.221-11.957 2.71 0 7.223-8.043-3.61-8.043" />
</svg>
